dist/img/partners/5.svg

<svg width="220" height="42" viewBox="0 0 220 42" fill="none" xmlns="http://www.w3.org/2000/svg">
<path fill-rule="evenodd" clip-rule="evenodd" d="M0.943057 20.5479C2.43999 16.2919 6.60199 12.1906 11.1963 11.4906C15.0296 10.9546 18.7171 10.7973 21.4701 12.8413C20.7556 14.3146 19.9509 15.8599 19.9509 15.8599C19.9509 15.8599 18.7447 15.1146 18.0296 14.9199C16.5749 14.2839 14.4301 14.1106 13.0811 15.1786L12.5015 16.1119L9.35972 28.0506C9.30346 28.4345 9.27492 28.9573 9.54825 29.2891C10.2895 30.0313 11.528 29.5687 12.5165 29.7089L12.8468 29.3802L14.9868 21.4214L24.166 21.4969L24.2755 21.6897C23.3873 25.2334 22.6051 28.8058 21.6077 32.2922L21.4124 32.4834L6.98212 32.423C4.78266 32.5266 2.69826 31.6313 1.63066 29.8703C1.54986 29.3193 0.945723 29.0151 0.97639 28.4099H0.837857C0.212923 25.9881 0.249323 22.9115 0.943057 20.5479Z" fill="#1F4FA2"/>
<path fill-rule="evenodd" clip-rule="evenodd" d="M109.357 20.4602C110.725 23.1039 112.392 26.1466 113.621 28.8148L113.481 29.2008C109.815 32.819 106.173 37.5618 101.249 38.8675C100.781 38.9222 100.644 38.5628 100.535 38.2034C100.599 35.7028 103.324 34.4768 104.375 32.3618C105.37 30.5518 105.594 28.4071 106.508 26.5419C107.338 24.5914 108.004 22.5867 109.081 20.7487L109.357 20.4602Z" fill="#1F4FA2"/>
<path fill-rule="evenodd" clip-rule="evenodd" d="M101.52 39.9407C109.664 37.133 114.42 27.6371 122.155 23.5084C122.871 23.1522 123.449 22.496 124.247 22.3892C124.52 22.7174 124.849 23.0491 124.849 23.5179C119.397 26.633 114.489 31.6231 109.913 36.2538C107.544 38.447 104.9 39.9772 102.093 41.124C101.791 40.7658 101.684 40.3512 101.52 39.9407Z" fill="#1F4FA2"/>
<path fill-rule="evenodd" clip-rule="evenodd" d="M107.079 10.2709C110.035 8.41755 112.91 6.81488 115.724 5.40288C115.418 6.83221 115.192 8.56422 115.655 10.0762L115.518 10.3496L109.433 13.8242L109.048 13.8216C108.283 12.7482 107.571 11.6456 106.941 10.5176L107.079 10.2709Z" fill="#1F4FA2"/>
<path fill-rule="evenodd" clip-rule="evenodd" d="M109.892 15.2265C111.873 15.1719 113.464 15.5519 115.113 15.6799V15.9025C113.379 16.8572 111.617 17.9255 109.828 18.5244C109.858 17.4235 110.081 16.3252 109.892 15.2265Z" fill="#1F4FA2"/>
<path fill-rule="evenodd" clip-rule="evenodd" d="M110.293 19.9554C112.304 18.7804 114.341 17.5757 116.487 16.6748C117.059 18.2148 117.881 19.5106 119.113 20.7252C120.379 20.2866 120.603 18.7778 121.705 18.2298L123.675 21.3148L123.591 21.5341C120.59 23.4205 117.506 25.3918 114.75 28.0205H114.475C112.998 25.3768 111.549 22.7085 110.293 19.9554Z" fill="#1F4FA2"/>
<path fill-rule="evenodd" clip-rule="evenodd" d="M116.502 11.2866L116.302 14.3653C114.953 14.5093 113.251 14.3986 111.547 14.2413L111.41 14.104L116.174 11.2866H116.502Z" fill="#1F4FA2"/>
<path fill-rule="evenodd" clip-rule="evenodd" d="M128.242 11.1226H137.695L140.041 18.1777C140.041 18.1777 140.123 18.2876 140.177 18.3693C142.355 16.288 146.134 11.1226 146.134 11.1226H151.137V11.4507L141.674 23.323C141.674 23.323 140.089 29.2282 139.201 32.222L138.486 32.4136H129.167L129.059 32.222L131.257 23.21L127.582 11.448C127.582 11.448 128.049 11.3146 128.242 11.1226Z" fill="#1F4FA2"/>
<path fill-rule="evenodd" clip-rule="evenodd" d="M152.979 11.2839L153.199 11.1466L170.131 11.1013C170.295 11.0746 170.543 11.2813 170.543 11.2813L169.735 14.9679L162.093 14.9466L161.761 15.5253L160.953 19.6141L161.146 19.7511L165.763 19.6687L164.817 23.8553L159.759 23.8979C159.759 23.8979 158.953 26.9463 158.673 28.5135L158.865 28.6501C161.174 28.6563 163.538 28.6651 166.011 28.6719L166.202 28.8083C166.118 30.0739 165.618 31.0417 165.342 32.2219L164.873 32.423L147.914 32.4922L152.979 11.2839Z" fill="#1F4FA2"/>
<path fill-rule="evenodd" clip-rule="evenodd" d="M34.5287 12.2907C38.5657 10.1121 44.1913 10.5267 47.611 12.7174C50.5438 15.2267 51.3303 19.185 50.4131 22.8122C49.2443 27.0961 45.5755 31.6746 41.0099 32.6237C36.7735 33.7101 31.7173 33.2294 28.9517 29.6757C26.4047 26.5877 26.9709 21.4517 28.7938 18.1294C29.9282 15.6867 32.1886 13.5774 34.5287 12.2907ZM35.9397 27.6617C35.7454 28.2939 35.7151 29.1737 36.2079 29.697C36.649 29.9737 37.2241 30.1382 37.7746 29.9767C38.2979 29.7579 38.9031 29.4294 39.1803 28.8538C40.3183 25.1455 40.9339 21.2174 41.9897 17.4538C41.9933 16.4374 43.0547 15.0814 41.7938 14.4721C40.887 14.2507 39.8829 14.3694 39.2761 15.0534C38.4454 16.8667 38.2183 18.8991 37.6922 20.7945C37.1907 23.1309 36.5241 25.383 35.9397 27.6617Z" fill="#1F4FA2"/>
<path fill-rule="evenodd" clip-rule="evenodd" d="M59.4042 13.0241C63.3833 10.4175 68.8827 10.0361 72.8761 11.8561C76.0051 13.3775 77.1218 16.7335 77.2766 20.0071C77.1797 24.8956 74.2802 29.4784 69.987 31.6377L67.2067 32.7575C63.2209 33.2653 58.8485 33.0623 56.001 30.0831C53.3422 27.4394 53.1349 22.9851 54.2999 19.608C55.0214 16.943 57.1177 14.6121 59.4042 13.0241ZM62.5182 29.2523C62.9838 29.5571 63.5875 29.7789 64.1657 29.5877C64.7417 29.3684 65.3214 28.8752 65.6261 28.3279L67.489 20.5544C67.6021 20.1408 67.5745 19.593 67.7693 19.3159C67.9947 17.6971 68.8354 16.3375 68.7031 14.6882C68.4843 14.4695 68.2531 13.9575 67.9214 13.9028C67.0985 13.7082 66.2999 13.8975 65.749 14.4722C64.3359 18.455 63.7182 22.7695 62.6062 26.8888C62.5485 27.6586 62.0802 28.5071 62.5182 29.2523Z" fill="#1F4FA2"/>
<path fill-rule="evenodd" clip-rule="evenodd" d="M82.9074 11.3083L83.4569 11.1723L97.5037 11.1603C99.7553 11.4696 101.839 13.6456 102.685 15.7936C104.182 20.4691 102.326 25.2181 99.3474 28.7572C97.087 31.0296 94.3897 32.4409 91.1465 32.4409C86.0823 32.4409 77.9531 32.4233 77.9531 32.4233C77.9531 32.4233 81.9631 15.0443 82.9074 11.3083ZM88.0506 29.0524C88.7079 29.4931 89.5069 29.1129 90.2214 29.1405C90.8818 28.9791 91.1574 28.4009 91.4891 27.8805C91.4891 27.8805 94.9479 15.7563 94.3454 14.9016C93.7157 14.2683 92.8001 14.4963 91.6667 14.4963C91.5829 14.7163 91.5282 14.9349 91.4719 15.1536L88.0506 29.0524Z" fill="#1F4FA2"/>
<path fill-rule="evenodd" clip-rule="evenodd" d="M118.644 3.29453C121.811 0.583864 126.289 1.50519 130.467 1.43586C135.688 2.02519 141.488 1.85186 146.631 0.875862C146.765 2.4732 145.524 3.86919 144.173 4.69053C140.54 6.63186 135.952 5.95586 131.829 5.72519L131.828 5.97186L133.531 6.63852C133.501 7.18786 132.896 7.48652 132.484 7.70519C131.823 7.97986 131.027 7.94919 130.364 8.22253C130.557 8.46919 131.107 8.2812 131.024 8.74653C129.809 10.0905 127.748 10.0852 126.211 9.44653L126.019 9.6652C126.069 10.9865 126.009 12.4425 125.264 13.5412C124.74 13.6199 124.44 13.1519 124.029 12.9599C123.697 13.7812 123.831 14.9372 123.196 15.6492C122.648 15.6225 122.209 14.9039 121.715 14.7132C121.107 16.0292 120.744 17.4568 119.779 18.6099C118.791 18.552 118.3 17.3416 117.889 16.5692C117.536 14.9745 117.405 13.0479 117.768 11.4025C116.809 9.91452 116.073 7.98919 116.793 6.12119C117.044 5.04919 117.761 4.00653 118.644 3.29453ZM120.22 8.98919L118.903 8.8492L119.011 9.09587C119.973 9.1812 119.791 10.4599 120.587 10.6812L120.22 8.98919L120.889 5.88652C121.355 6.13586 122.069 6.2732 122.593 6.0292C123.061 5.31453 124.037 5.38653 124.836 5.36387C125.496 5.22653 125.429 3.94786 126.281 4.30786C126.584 4.22519 127.107 4.00653 127.08 3.73187C126.199 4.2252 125.185 2.95719 124.632 4.05452C124.108 4.51986 123.284 4.49052 122.652 4.57186C122.429 5.34119 121.604 5.80386 120.889 5.88652L120.22 8.98919Z" fill="#1F4FA2"/>
<path fill-rule="evenodd" clip-rule="evenodd" d="M179.504 11.1053L187.888 11.1014L188.216 11.46L190.408 32.4231C190.408 32.5324 180.897 32.4231 180.897 32.4231L180.522 29.1215L173.266 29.1611L171.14 32.4231L166.852 32.4407C166.852 32.4407 177.486 14.2867 179.504 11.1053ZM175.586 25.3188L179.985 25.3158L179.342 18.9538L175.586 25.3188Z" fill="#1F4FA2"/>
<path fill-rule="evenodd" clip-rule="evenodd" d="M197.645 11.3387L197.921 11.1467L214.605 11.1414C216.501 11.2014 217.872 12.6081 218.829 14.1214C219.979 16.0521 219.779 18.7169 218.728 20.6361C217.897 22.1731 216.383 23.5965 214.895 24.5278C215.376 26.9705 215.96 29.4049 216.523 31.9027C216.605 32.2314 216.439 32.4507 216.136 32.4231L206.819 32.4746L206.489 32.283L204.803 26.2861C204.667 26.0366 204.363 26.1737 204.143 26.1465L203.868 26.5298L202.339 32.2189L202.063 32.4377L192.581 32.4653C192.417 32.0241 192.556 31.7538 192.721 31.3398C194.363 24.6918 196.113 18.0137 197.645 11.3387ZM205.061 22.1907C205.417 22.5199 206.285 22.5106 206.779 22.4559C207.275 22.2913 207.675 21.759 207.924 21.2631L209.257 16.0721C209.535 15.5521 209.345 14.8921 208.988 14.4787C208.439 14.1747 207.505 14.1721 206.953 14.4721L205.061 22.1907Z" fill="#1F4FA2"/>
</svg>

<svg width="220" height="42" viewBox="0 0 220 42" fill="none" xmlns="http://www.w3.org/2000/svg"><path fill-rule="evenodd" clip-rule="evenodd" d="M.943 20.548c1.497-4.256 5.659-8.357 10.253-9.057 3.834-.536 7.521-.694 10.274 1.35-.714 1.474-1.52 3.019-1.52 3.019s-1.205-.745-1.92-.94c-1.455-.636-3.6-.81-4.949.259l-.58.933L9.36 28.05c-.057.384-.085.906.188 1.238.742.742 1.98.28 2.969.42l.33-.329 2.14-7.959 9.179.076.11.193c-.889 3.543-1.67 7.116-2.668 10.602l-.196.191-14.43-.06c-2.2.104-4.284-.792-5.351-2.553-.081-.55-.685-.855-.655-1.46H.838c-.625-2.422-.589-5.498.105-7.862zm108.414-.088c1.368 2.644 3.035 5.687 4.264 8.355l-.14.386c-3.666 3.618-7.308 8.36-12.232 9.666-.468.055-.605-.304-.714-.664.064-2.5 2.789-3.726 3.84-5.841.995-1.81 1.219-3.955 2.133-5.82.83-1.95 1.496-3.955 2.573-5.793l.276-.289z" fill="#1F4FA2"/><path fill-rule="evenodd" clip-rule="evenodd" d="M101.52 39.94c8.144-2.807 12.9-12.303 20.635-16.432.716-.356 1.294-1.012 2.092-1.119.273.328.602.66.602 1.129-5.452 3.115-10.36 8.105-14.936 12.736-2.369 2.193-5.013 3.723-7.82 4.87-.302-.358-.409-.773-.573-1.183zm5.559-29.67a104.187 104.187 0 018.645-4.867c-.306 1.43-.532 3.161-.069 4.673l-.137.274-6.085 3.474-.385-.002a35.775 35.775 0 01-2.107-3.304l.138-.247zm2.813 4.956c1.981-.054 3.572.326 5.221.454v.223c-1.734.954-3.496 2.022-5.285 2.621.03-1.1.253-2.199.064-3.298zm.401 4.729c2.011-1.175 4.048-2.38 6.194-3.28a10.763 10.763 0 002.626 4.05c1.266-.438 1.49-1.947 2.592-2.495l1.97 3.085-.084.22c-3.001 1.886-6.085 3.857-8.841 6.485h-.275c-1.477-2.643-2.926-5.311-4.182-8.065zm6.209-8.668l-.2 3.078c-1.349.144-3.051.034-4.755-.124l-.137-.137 4.764-2.817h.328zm11.74-.164h9.453l2.346 7.055s.082.11.136.191c2.178-2.081 5.957-7.246 5.957-7.246h5.003v.328l-9.463 11.872s-1.585 5.905-2.473 8.899l-.715.192h-9.319l-.108-.192 2.198-9.012-3.675-11.762s.467-.133.66-.325zm24.737.161l.22-.137 16.932-.046c.164-.026.412.18.412.18l-.808 3.687-7.642-.021-.332.578-.808 4.09.193.136 4.617-.082-.946 4.186-5.058.043s-.806 3.048-1.086 4.616l.192.136c2.309.006 4.673.015 7.146.022l.191.136c-.084 1.266-.584 2.234-.86 3.414l-.469.201-16.959.07 5.065-21.21zM34.529 12.29c4.037-2.178 9.662-1.763 13.082.427 2.933 2.51 3.72 6.468 2.802 10.095-1.169 4.284-4.837 8.863-9.403 9.812-4.236 1.086-9.293.605-12.058-2.948-2.547-3.088-1.981-8.224-.158-11.547 1.134-2.442 3.395-4.552 5.735-5.838zm1.41 15.372c-.194.632-.224 1.512.269 2.035.441.277 1.016.441 1.567.28.523-.22 1.128-.548 1.405-1.123 1.138-3.709 1.754-7.637 2.81-11.4.003-1.017 1.065-2.373-.196-2.982-.907-.221-1.911-.103-2.518.581-.83 1.814-1.058 3.846-1.584 5.741-.501 2.337-1.168 4.589-1.752 6.868zm23.465-14.638c3.98-2.606 9.479-2.988 13.472-1.168 3.13 1.521 4.246 4.877 4.4 8.151-.096 4.889-2.996 9.471-7.289 11.63l-2.78 1.12c-3.986.508-8.358.305-11.206-2.674-2.659-2.644-2.866-7.098-1.701-10.475.721-2.665 2.818-4.996 5.104-6.584zm3.114 16.228c.466.305 1.07.527 1.648.336a2.993 2.993 0 001.46-1.26l1.863-7.774c.113-.413.085-.961.28-1.238.226-1.619 1.066-2.979.934-4.628-.219-.219-.45-.73-.782-.785-.823-.195-1.621-.005-2.172.57-1.413 3.982-2.03 8.296-3.143 12.416-.058.77-.526 1.618-.088 2.363zm20.389-17.944l.55-.136 14.047-.012c2.251.31 4.335 2.486 5.181 4.634 1.497 4.675-.359 9.424-3.338 12.963-2.26 2.273-4.957 3.684-8.2 3.684-5.065 0-13.194-.018-13.194-.018s4.01-17.379 4.954-21.115zm5.144 17.744c.657.441 1.456.06 2.17.088.66-.16.936-.74 1.268-1.26 0 0 3.459-12.124 2.856-12.978-.63-.634-1.545-.406-2.678-.406-.084.22-.139.439-.195.658L88.05 29.052z" fill="#1F4FA2"/><path fill-rule="evenodd" clip-rule="evenodd" d="M118.644 3.295c3.167-2.711 7.645-1.79 11.823-1.86 5.221.59 11.021.417 16.164-.56.134 1.598-1.107 2.994-2.458 3.816-3.633 1.94-8.221 1.265-12.344 1.034l-.001.247 1.703.667c-.03.549-.635.848-1.047 1.066-.661.275-1.457.244-2.12.518.193.246.743.058.66.524-1.215 1.344-3.276 1.338-4.813.7l-.192.218c.05 1.322-.01 2.778-.755 3.876-.524.079-.824-.39-1.235-.581-.332.821-.198 1.977-.833 2.69-.548-.027-.987-.746-1.481-.937-.608 1.316-.971 2.744-1.936 3.897-.988-.058-1.479-1.268-1.89-2.04-.353-1.595-.484-3.522-.121-5.168-.959-1.487-1.695-3.413-.975-5.28.251-1.073.968-2.115 1.851-2.827zm1.576 5.694l-1.317-.14.108.247c.962.085.78 1.364 1.576 1.585l-.367-1.692.669-3.102c.466.249 1.18.386 1.704.142.468-.714 1.444-.642 2.243-.665.66-.137.593-1.416 1.445-1.056.303-.083.826-.301.799-.576-.881.493-1.895-.775-2.448.323-.524.465-1.348.436-1.98.517-.223.77-1.048 1.232-1.763 1.315l-.669 3.102zm59.284 2.116l8.384-.004.328.359 2.192 20.963c0 .11-9.511 0-9.511 0l-.375-3.302-7.256.04-2.126 3.262-4.288.018s10.634-18.154 12.652-21.336zm-3.918 14.214l4.399-.003-.643-6.362-3.756 6.365zm22.059-13.98l.276-.192 16.684-.006c1.896.06 3.267 1.467 4.224 2.98 1.15 1.931.95 4.596-.101 6.515-.831 1.537-2.345 2.96-3.833 3.892.481 2.443 1.065 4.877 1.628 7.375.082.328-.084.548-.387.52l-9.317.052-.33-.192-1.686-5.997c-.136-.25-.44-.112-.66-.14l-.275.384-1.529 5.689-.276.219-9.482.027c-.164-.44-.025-.711.14-1.125 1.642-6.648 3.392-13.326 4.924-20.001zm7.416 10.852c.356.329 1.224.32 1.718.265.496-.165.896-.697 1.145-1.193l1.333-5.19c.278-.52.088-1.18-.269-1.594-.549-.304-1.483-.307-2.035-.007l-1.892 7.719z" fill="#1F4FA2"/></svg>
